icons/svg/briefcase-upload.svg

﻿<?xml version="1.0" encoding="utf-8"?>
<!DOCTYPE svg PUBLIC "-//W3C//DTD SVG 1.1//EN" "http://www.w3.org/Graphics/SVG/1.1/DTD/svg11.dtd">
<svg xmlns="http://www.w3.org/2000/svg" xmlns:xlink="http://www.w3.org/1999/xlink" version="1.1" baseProfile="full" width="24" height="24" viewBox="0 0 24.00 24.00" enable-background="new 0 0 24.00 24.00" xml:space="preserve">
	<path fill="#000000" fill-opacity="1" stroke-width="0.2" stroke-linejoin="round" d="M 19.9994,5.99807C 21.1044,5.99807 21.9994,6.89307 21.9994,7.99807L 21.9994,18.9981C 21.9994,20.1031 21.1044,20.9981 19.9994,20.9981L 3.99939,20.9981C 2.89339,20.9981 1.99939,20.1031 1.99939,18.9981L 2.01038,7.99807C 2.01038,6.89307 2.89339,5.99807 3.99939,5.99807L 7.99939,5.99807L 7.99939,3.99807L 9.99939,1.99807L 13.9994,1.99807L 15.9994,3.99807L 15.9994,5.99807L 19.9994,5.99807 Z M 9.99939,3.99807L 9.99939,5.99807L 13.9994,5.99807L 13.9994,3.99807L 9.99939,3.99807 Z M 12,9.00001L 7,14L 10,14L 10,18L 14,18L 14,14L 17,14L 12,9.00001 Z "/>
</svg>

<svg xmlns="http://www.w3.org/2000/svg" version="1.1" baseProfile="full" width="24" height="24" viewBox="0 0 24.00 24.00" xml:space="preserve"><path fill="#000" fill-opacity="1" stroke-width=".2" stroke-linejoin="round" d="M20 5.998c1.104 0 2 .895 2 2v11c0 1.105-.896 2-2 2H4c-1.107 0-2-.895-2-2l.01-11c0-1.105.883-2 1.99-2h4v-2l2-2h4l2 2v2h4zm-10-2v2h4v-2h-4zM12 9l-5 5h3v4h4v-4h3l-5-5z"/></svg>
